!!!!SEGMENT:34Akinoirokusa_c.krn
!!!OTL: 秋の色種
!!!OPR:Eiga Banso Kyokusyu,jidai-geki,zenpen
!!!YOY:1929
!!!ONB:Dairantou
**kern
*clefG2
*k[]
*C:
*M2/4
=1
!LO:TX:a:B:t=Allegro
8bbL
16bbL
16bbJJ
8bb
8r
=2
8bbL
16bbL
16bbJJ
8bb
8r
=3
8bbL
16bbL
16bbJJ
8bb
8r
=4
8bbL
16bbL
16bbJJ
8bb
8r
=5
8r
(16eeeLL
16dddJJ)
8bbL
8aaJ
=6
8bbL
16bbL
16bbJJ
8bb
8r
=7
8r
(16eeeLL
16dddJJ)
8bbL
8aaJ
=8
8bbL
16bbL
16bbJJ
8bb
8r
=9
16aaLL
16aa
16aa
16aaJJ
16aaLL
16aa
16aa
16aaJJ
=10
8bbL
16bbL
16bbJJ
8bb
8r
=11
16aaLL
16aa
16aa
16aaJJ
16aaLL
16aa
16aa
16aaJJ
=12
8bbL
16bbL
16bbJJ
8bb
8r
=13
8r
16cccLL
16cccJJ
8r
16bbLL
16bbJJ
=14
8r
16aaLL
16aaJJ
8r
16bbLL
16bbJJ
=15
8r
16cccLL
16cccJJ
8r
16bbLL
16bbJJ
=16
8r
16aaLL
16aaJJ
8r
16bbLL
16bbJJ
=17
8r
8ccc
8bbL
8aaJ
=18
8bbL
8ff
8ee
8ddJ
=19
8r
8ccL
8b
8aJ
=20
8.fL
16aJk
8b
8r
=21
8r
8b
8r
8b
=22
8r
16bLL
16bJJ
4e
=23
8r
8b
8r
8b
=24
8r
16bLL
16bJJ
4e
=25
16BLL
16b
16B
16bJJ
16BLL
16b
16B
16bJJ
=26
8bL
8eJ
4r
=27
16BLL
16b
16B
16bJJ
16BLL
16b
16B
16bJJ
=28
8bL
8eJ
4r
=29
4d
4d
=30
8.eL
16cJk
4B
=31
8bL
8d
8e
8dJ
=32
8.eL
16cJk
4B
=33
8r
(8ddL
8ee)
(8ddJ
=34
8eeL)
(8dd
8ee)
8ddJ
=35
8eeL
16eeL
16eeJJ
8ee
8r
=36
8eeL
16eeL
16eeJJ
8ee
8r
=37
8eeL
16eeL
16eeJJ
8ee
8r
=38
8eeL
16eeL
16eeJJ
8ee
8r
=39
8r
8ee
8r
8b
=40
8r
8ee
4b
=41
8r
8ee
8r
8b
=42
8r
8ee
4b
=43
8eeL
8ff#X
8gg
8ff#J
=44
8ggL
16ggL
16ggJJ
8ff#XL
8ggJ
=45
8ff#XL
8ee
8cc
8bJ
=46
8ccL
16ccL
16ccJJ
8b
8r
=47
16aLL
16a
16a
16aJJ
16aLL
16a
16a
16aJJ
=48
8bL
16fL
16fJJ
8e
8r
=49
16aLL
16a
16a
16aJJ
16aLL
16a
16a
16aJJ
=50
8bL
16fL
16fJJ
8e
8r
=51
16aLL
16a
16a
16aJJ
16aLL
16a
16a
16aJJ
=52
8bL
16fL
16fJJ
8e
8r
=53
4dd
4ff
=54
16eeKL
8ee
16ccJk
8b
8r
=55
8ddL
8dd
8dd
8ddJ
=56
8rb
(16eeLL
16ddJJ
8b)
8rb
=57
8rb
16bLL
16aJJ
8f
8rb
=58
8ra
16bLL)
16aJJ
8f
8rb
=59
8rb
(16bLL
16aJJ
8fL)
16bL
(16aJJ
=60
8fL)
(16bL
16aJJ
8fL)
8aJ
=61
8bL
(8a
8b)
8aJ
=62
8bL
((8a
8b)
8aJ
=:|!
*-
!!!ENC: Yukiko Yoden
!!!END: 2023/06/11
